src/topics/icons/marvel.svg

<svg height="178" preserveAspectRatio="xMidYMid" viewBox="0 0 256 178" width="256" xmlns="http://www.w3.org/2000/svg"><path d="m149.332 55.19c4.016-4.015 7.574-7.574 10.669-10.668 3.085-3.086 6.027-5.797 8.81-8.116 2.783-2.32 5.566-4.71 8.35-7.189 6.18-5.252 11.282-8.963 15.304-11.13 4.013-2.16 7.883-3.246 11.594-3.246 5.252 0 9.971 1.936 14.144 5.797 4.174 3.869 6.26 8.277 6.26 13.218 0 3.71-1.006 7.5-3.014 11.363-2.014 3.87-5.644 9.203-10.899 15.999-24.115 31.537-36.173 51.943-36.173 61.218 0 4.022 2.008 6.03 6.028 6.03 3.088 0 6.494-1.313 10.205-3.944 3.708-2.622 8.499-7.188 14.376-13.68 3.086-3.399 6.877-8.038 11.361-13.913 4.48-5.871 8.421-11.282 11.827-16.232 3.4-4.943 6.261-8.349 8.58-10.202 2.319-1.856 5.022-2.783 8.116-2.783 3.088 0 5.718 1.086 7.883 3.244 2.161 2.167 3.247 4.798 3.247 7.886 0 5.877-2.709 13.682-8.116 23.42-5.412 9.739-12.45 19.71-21.102 29.913-10.825 12.985-21.876 23.037-33.158 30.144-11.29 7.111-21.566 10.669-30.84 10.669-8.661 0-15.769-2.864-21.335-8.58-5.566-5.718-8.347-13.059-8.347-22.029 0-4.639.384-9.044 1.159-13.218.769-4.175 1.927-8.5 3.477-12.986 1.544-4.479 3.711-9.274 6.494-14.377 2.783-5.102 6.333-10.74 10.666-16.927.305-.616 1.081-1.855 2.32-3.71-8.045 6.189-16 13.991-23.885 23.421-7.883 9.433-15.847 21.565-23.884 36.405-5.878 9.898-10.362 16.464-13.45 19.71-3.094 3.247-6.955 4.869-11.593 4.869-4.95 0-9.044-1.774-12.291-5.332-3.247-3.552-4.869-7.958-4.869-13.219 0-3.397.383-6.724 1.158-9.971.769-3.245 2.394-7.651 4.872-13.216 1.541-4.327 3.549-9.044 6.028-14.147 2.471-5.099 4.638-9.043 6.493-11.824l8.811-15.305c.616-.616 1.544-2.16 2.783-4.638-6.189 4.95-12.217 10.594-18.087 16.927-5.878 6.341-11.522 12.913-16.927 19.712-5.414 6.803-10.203 13.68-14.377 20.637-4.175 6.956-7.653 13.68-10.435 20.174-3.711 8.658-7.03 14.449-9.972 17.391-2.933 2.935-6.725 4.405-11.363 4.405-4.636 0-8.499-1.855-11.594-5.564-3.085-3.71-4.636-8.501-4.636-14.377 0-11.746 5.723-32 17.158-60.754 6.494-16.384 13.53-31.537 21.101-45.449 7.574-13.913 15.074-25.812 22.493-35.712 4.327-5.564 8.038-9.507 11.132-11.824 3.086-2.32 6.492-3.48 10.203-3.48 4.015 0 7.493 1.392 10.435 4.174 2.935 2.783 4.405 6.189 4.405 10.203 0 3.094-.694 6.341-2.086 9.74-1.391 3.406-4.719 9.275-9.972 17.622-.927 1.553-2.319 3.943-4.174 7.188-1.855 3.247-4.174 7.35-6.955 12.291l-5.103 10.202c9.275-11.13 17.391-20.557 24.348-28.289 6.956-7.725 13.058-13.914 18.319-18.55 5.255-4.638 9.972-8.038 14.146-10.204 4.172-2.158 7.955-3.245 11.361-3.245 4.327 0 8.038 1.47 11.132 4.405 3.086 2.942 4.636 6.573 4.636 10.897 0 2.783-.623 5.878-1.855 9.277-1.239 3.406-3.87 8.659-7.883 15.768l-9.739 17.624-3.71 6.956 5.563-6.028c5.566-5.871 10.358-10.821 14.377-14.841z" fill="#1991eb"/></svg>

<?xml version="1.0" encoding="UTF-8" standalone="no"?>
<svg width="256px" height="178px" viewBox="0 0 256 178" version="1.1" xmlns="http://www.w3.org/2000/svg" xmlns:xlink="http://www.w3.org/1999/xlink" preserveAspectRatio="xMidYMid">
    <g>
        <path d="M149.332,55.19 C153.348,51.175 156.906,47.616 160.001,44.522 C163.086,41.436 166.028,38.725 168.811,36.406 C171.594,34.086 174.377,31.696 177.161,29.217 C183.341,23.965 188.443,20.254 192.465,18.087 C196.478,15.927 200.348,14.841 204.059,14.841 C209.311,14.841 214.03,16.777 218.203,20.638 C222.377,24.507 224.463,28.915 224.463,33.856 C224.463,37.566 223.457,41.356 221.449,45.219 C219.435,49.089 215.805,54.422 210.55,61.218 C186.435,92.755 174.377,113.161 174.377,122.436 C174.377,126.458 176.385,128.466 180.405,128.466 C183.493,128.466 186.899,127.153 190.61,124.522 C194.318,121.9 199.109,117.334 204.986,110.842 C208.072,107.443 211.863,102.804 216.347,96.929 C220.827,91.058 224.768,85.647 228.174,80.697 C231.574,75.754 234.435,72.348 236.754,70.495 C239.073,68.639 241.776,67.712 244.87,67.712 C247.958,67.712 250.588,68.798 252.753,70.956 C254.914,73.123 256,75.754 256,78.842 C256,84.719 253.291,92.524 247.884,102.262 C242.472,112.001 235.434,121.972 226.782,132.175 C215.957,145.16 204.906,155.212 193.624,162.319 C182.334,169.43 172.058,172.988 162.784,172.988 C154.123,172.988 147.015,170.124 141.449,164.408 C135.883,158.69 133.102,151.349 133.102,142.379 C133.102,137.74 133.486,133.335 134.261,129.161 C135.03,124.986 136.188,120.661 137.738,116.175 C139.282,111.696 141.449,106.901 144.232,101.798 C147.015,96.696 150.565,91.058 154.898,84.871 C155.203,84.255 155.979,83.016 157.218,81.161 C149.173,87.35 141.218,95.152 133.333,104.582 C125.45,114.015 117.486,126.147 109.449,140.987 C103.571,150.885 99.087,157.451 95.999,160.697 C92.905,163.944 89.044,165.566 84.406,165.566 C79.456,165.566 75.362,163.792 72.115,160.234 C68.868,156.682 67.246,152.276 67.246,147.015 C67.246,143.618 67.629,140.291 68.404,137.044 C69.173,133.799 70.798,129.393 73.276,123.828 C74.817,119.501 76.825,114.784 79.304,109.681 C81.775,104.582 83.942,100.638 85.797,97.857 L94.608,82.552 C95.224,81.936 96.152,80.392 97.391,77.914 C91.202,82.864 85.174,88.508 79.304,94.841 C73.426,101.182 67.782,107.754 62.377,114.553 C56.963,121.356 52.174,128.233 48,135.19 C43.825,142.146 40.347,148.87 37.565,155.364 C33.854,164.022 30.535,169.813 27.593,172.755 C24.66,175.69 20.868,177.16 16.23,177.16 C11.594,177.16 7.731,175.305 4.636,171.596 C1.551,167.886 0,163.095 0,157.219 C0,145.473 5.723,125.219 17.158,96.465 C23.652,80.081 30.688,64.928 38.259,51.016 C45.833,37.103 53.333,25.204 60.752,15.304 C65.079,9.74 68.79,5.797 71.884,3.48 C74.97,1.16 78.376,0 82.087,0 C86.102,0 89.58,1.392 92.522,4.174 C95.457,6.957 96.927,10.363 96.927,14.377 C96.927,17.471 96.233,20.718 94.841,24.117 C93.45,27.523 90.122,33.392 84.869,41.739 C83.942,43.292 82.55,45.682 80.695,48.927 C78.84,52.174 76.521,56.277 73.74,61.218 L68.637,71.42 C77.912,60.29 86.028,50.863 92.985,43.131 C99.941,35.406 106.043,29.217 111.304,24.581 C116.559,19.943 121.276,16.543 125.45,14.377 C129.622,12.219 133.405,11.132 136.811,11.132 C141.138,11.132 144.849,12.602 147.943,15.537 C151.029,18.479 152.579,22.11 152.579,26.434 C152.579,29.217 151.956,32.312 150.724,35.711 C149.485,39.117 146.854,44.37 142.841,51.479 L133.102,69.103 L129.392,76.059 L134.955,70.031 C140.521,64.16 145.313,59.21 149.332,55.19 Z" fill="#1991EB"></path>
    </g>
</svg>
